X: 2
T: Lovely Lough Sheelin
C: Ed Reavy
M: 4/4
L: 1/8
R: highland fling
K: Dmaj
|: AF |\
D2 FA dAFD | E2 CD A,ECE | 
D2 FA dAFA | fdec d2 :|
dg |\
f2 af defa | gbed dAAg | 
f2 af defa | gbec d2 dg | 
f2 af defa | gbed cAAg | 
faec defg | afge fd |]
